X:1
T:The Cowgate
C:T. S. Macdonald
M:C
L:1/8
K:D
A/B/c | d2 f2 e2 dc | BcdB A2 GF | GABG FGAF | G2 E2 E2 AB/c/ |
        d2 f2 e2 dc | BcdB A2 fe | dcdf ecAc | d2 d2 d2 ||
fe    | dcde fedf | edcB A2 fe | dcde fedF | G2 E2 E2 fe |
        dcde fedf | edcB A2 fe | dcdf ecAc | d2 d2 d2 |]

